X: 20317
T: John Brennan's Trip To Dublin
R: hornpipe
M: 4/4
K: Gmajor
|:G3A GD D2|E3G D3G|E3G EDEG|A3B cBcd|
GFGA BD D2|EDEG D3G|EDEG AGBA|1 GDBA G3D:|2 GDBA G3B||
|:c3d cBAd|B3c dBGD|E3G cBAG|ADBD cDdB|
c3d cBAd|B3c dBGD|E3G AGBA|1 GDBA G3B:|2 GDBA G3D||
|:GD D2 GD D2|E3G D3G|E3G AGAB|cBcd edcB|
GFGA BD D2|EDEG D3G|EDEG ADBA|1 GDBA G3D:|2 GDBA G2 (3GAB||
|:c3d cBAd|B3c dBGD|A3B cBAG|AD D2 ADBD|
c3d cBAd|B3c dBGD|E3G ADBA|1 GDBA G2 (3GAB:|2 GDBA G3D||

